packages/core/src/svgs/tokens/mono/TRIBE.svg

<svg width="24" height="24" viewBox="0 0 24 24" fill="none" xmlns="http://www.w3.org/2000/svg">
<path d="M3.768 2.8354C3.4324 3.22813 3.4324 3.77793 3.4324 4.87039C3.4324 5.96287 3.4324 6.50552 3.768 6.89825L3.91082 7.04105C4.29639 7.38378 4.85333 7.42663 5.96721 7.50516C9.98473 7.78528 14.0168 7.78528 18.0343 7.50516C19.1483 7.42663 19.7051 7.38378 20.0908 7.04105L20.2336 6.89825C20.5691 6.50552 20.5691 5.96287 20.5691 4.86326C20.5691 3.77078 20.5691 3.22098 20.2336 2.82827C20.1892 2.77751 20.1414 2.72981 20.0908 2.68545C19.6981 2.34273 19.134 2.29989 18.0129 2.22134C16.4421 2.11424 14.2857 2 12.0008 2C9.71582 2 7.56664 2.11424 5.98864 2.21421C4.86048 2.29989 4.30353 2.34273 3.91082 2.68545C3.86005 2.72981 3.81235 2.77751 3.768 2.82827V2.8354ZM20.3479 12.8176C20.2621 12.1035 20.2264 11.7393 19.8909 11.4823C19.5623 11.2323 19.1768 11.2682 18.427 11.3466C18.0843 11.3823 17.6916 11.4251 17.2346 11.4894C16.8419 11.5394 16.4777 11.618 16.1494 11.7108C15.4853 11.9036 15.1497 11.9964 14.6499 12.6462C14.1429 13.2959 14.1429 13.8173 14.1429 14.8597V20.5362C14.1429 21.2216 14.1429 21.5715 14.3713 21.7857C14.5927 22 14.9568 22 15.6852 22H17.6058C18.8054 22 19.3982 22 19.8409 21.6145C20.2835 21.2288 20.3335 20.6933 20.4335 19.6293C20.6398 17.3618 20.6111 15.0791 20.3479 12.8176ZM4.11074 11.4823C3.77515 11.7393 3.73944 12.0964 3.65376 12.8176C3.38839 15.079 3.35968 17.362 3.56807 19.6293C3.66804 20.7005 3.71089 21.2288 4.16073 21.6145C4.60342 22 5.19607 22 6.39564 22H8.31637C9.04473 22 9.40877 22 9.63019 21.7857C9.85861 21.5715 9.85861 21.2216 9.85861 20.5362V14.8597C9.85861 13.8101 9.85861 13.2888 9.35878 12.6462C8.8448 11.9892 8.5163 11.8964 7.85226 11.7037C7.52381 11.6109 7.15965 11.5322 6.76693 11.4751L5.57451 11.3466C4.81763 11.2752 4.43919 11.2323 4.11074 11.4894V11.4823Z" fill="white"/>
</svg>

<svg xmlns="http://www.w3.org/2000/svg" width="24" height="24" fill="none" viewBox="0 0 24 24">
    <path fill="#fff" d="M3.768 2.835c-.336.393-.336.943-.336 2.035s0 1.636.336 2.028l.143.143c.385.343.942.386 2.056.464 4.018.28 8.05.28 12.067 0 1.114-.078 1.671-.121 2.057-.464l.143-.143c.335-.392.335-.935.335-2.035 0-1.092 0-1.642-.335-2.035a2 2 0 0 0-.143-.143c-.393-.342-.957-.385-2.078-.464A90 90 0 0 0 12 2c-2.285 0-4.434.114-6.012.214-1.129.086-1.685.129-2.078.471q-.076.068-.143.143zm16.58 9.983c-.086-.714-.122-1.079-.457-1.336-.329-.25-.714-.214-1.464-.135a32 32 0 0 0-1.192.142 7.5 7.5 0 0 0-1.086.222c-.664.193-1 .285-1.5.935-.506.65-.506 1.171-.506 2.214v5.676c0 .686 0 1.035.228 1.25.222.214.586.214 1.314.214h1.92c1.2 0 1.793 0 2.236-.386.442-.385.492-.92.592-1.985.207-2.267.178-4.55-.085-6.811M4.11 11.482c-.336.257-.372.614-.457 1.336a32.7 32.7 0 0 0-.086 6.811c.1 1.072.143 1.6.593 1.985C4.603 22 5.196 22 6.396 22h1.92c.729 0 1.093 0 1.314-.214.229-.215.229-.564.229-1.25V14.86c0-1.05 0-1.571-.5-2.214-.514-.657-.843-.75-1.507-.942a9 9 0 0 0-1.085-.229l-1.192-.128c-.757-.072-1.136-.115-1.464.142z"/>
</svg>
